public/library/hyperliquid-text-light.svg

<svg width="370" height="57" viewBox="0 0 370 57" fill="none" xmlns="http://www.w3.org/2000/svg">
<path d="M65.3 23.7996C65.3 45.2996 52.1 52.1996 45.1 46.0996C39.4 41.0996 37.7 30.4996 29.1 29.3996C18.2 28.0996 17.2 42.5996 10 42.5996C1.6 42.5996 0 30.4996 0 24.1996C0 17.7996 1.8 9.09956 8.9 9.09956C17.2 9.09956 17.7 21.5996 28.1 20.8996C38.4 20.1996 38.6 7.19957 45.4 1.69957C51.3 -3.20043 65.3 1.99957 65.3 23.7996Z" fill="#072723"/>
<path d="M96.2998 43.7996V2.09955H100.3V20.1996H124.7V2.09955H128.6V43.8996H124.7V23.5995H100.3V43.8996H96.2998V43.7996Z" fill="#072723"/>
<path d="M139 56.4996L144.4 43.0996L132.7 14.9996H136.8L144.5 33.9996C144.9 35.1996 145.6 36.6996 146.4 38.5996C146.5 38.2996 146.6 37.9996 146.8 37.6996C146.9 37.3996 147 37.0996 147.2 36.7996C147.4 36.2996 147.7 35.7996 147.8 35.2996C147.9 34.7996 148.1 34.3996 148.3 33.8996L155.5 14.8996H159.4L143 56.3996H139V56.4996Z" fill="#072723"/>
<path d="M163.2 56.4996V14.9996H166.9V16.7996C166.9 17.1996 166.9 17.4996 166.9 17.8996C166.9 18.2996 166.9 18.6996 166.9 19.0996C166.9 19.2996 166.9 19.4996 166.9 19.6996C166.9 19.8996 166.9 20.0996 166.9 20.2996C167.9 18.4996 169.2 16.9996 171.1 15.8996C172.9 14.7996 174.9 14.1996 177.2 14.1996C179.9 14.1996 182.2 14.8996 184.2 16.1996C186.2 17.4996 187.7 19.2996 188.8 21.5996C189.9 23.8996 190.4 26.4996 190.4 29.3996C190.4 32.3996 189.9 34.9996 188.8 37.2996C187.7 39.5996 186.1 41.3996 184.2 42.7996C182.2 44.0996 179.9 44.7996 177.4 44.7996C175.2 44.7996 173.3 44.2996 171.4 43.1996C169.6 42.1996 168.2 40.5996 167.1 38.5996C167.1 38.8996 167.1 39.1996 167.1 39.5996C167.1 39.8996 167.1 40.1996 167.1 40.4996C167.1 40.6996 167.1 40.9996 167.1 41.1996C167.1 41.3996 167.1 41.5996 167.1 41.7996V56.5996H163.2V56.4996ZM176.6 41.6996C178.6 41.6996 180.3 41.1996 181.8 40.0996C183.3 38.9996 184.4 37.5996 185.3 35.6996C186.1 33.7996 186.5 31.6996 186.5 29.2996C186.5 26.8996 186.1 24.7996 185.3 22.9996C184.5 21.1996 183.3 19.6996 181.8 18.6996C180.3 17.6996 178.6 17.1996 176.6 17.1996C174.7 17.1996 173 17.6996 171.5 18.6996C170 19.6996 168.8 21.0996 168 22.9996C167.2 24.7996 166.7 26.9996 166.7 29.3996C166.7 31.7996 167.1 33.9996 168 35.7996C168.8 37.6996 170 39.0996 171.5 40.1996C173 41.2996 174.7 41.6996 176.6 41.6996Z" fill="#072723"/>
<path d="M208.1 44.6996C205.4 44.6996 203 44.0996 200.9 42.8996C198.8 41.6996 197.2 39.8995 196.1 37.5995C195 35.2995 194.4 32.4996 194.4 29.2996C194.4 26.3996 195 23.7996 196.2 21.4995C197.4 19.1995 199 17.3995 201 16.0995C203 14.7995 205.3 14.0995 207.8 14.0995C210.5 14.0995 212.8 14.6995 214.8 15.9995C216.7 17.1995 218.2 18.9996 219.2 21.1996C220.2 23.4996 220.7 26.0995 220.7 29.0995V29.8996H198.1C198.1 32.3996 198.5 34.4996 199.4 36.2996C200.3 38.0996 201.4 39.3996 202.9 40.2996C204.4 41.1996 206.2 41.6996 208.1 41.6996C210.4 41.6996 212.3 41.1995 213.9 40.0995C215.4 38.9995 216.4 37.2995 216.7 35.0995H220.4C220.1 36.8995 219.5 38.5996 218.4 39.9995C217.4 41.3995 216 42.5996 214.2 43.3996C212.6 44.1996 210.5 44.6996 208.1 44.6996ZM216.7 27.0995C216.7 24.0995 215.9 21.6996 214.3 19.8996C212.7 18.0996 210.6 17.1996 207.8 17.1996C205.1 17.1996 202.9 18.0995 201.2 19.9995C199.5 21.8995 198.5 24.1995 198.2 27.0995H216.7Z" fill="#072723"/>
<path d="M226.4 43.7996V14.9996H230.1V16.8996C230.1 17.1996 230.1 17.4996 230.1 17.7996C230.1 18.0996 230.1 18.3996 230.1 18.6996C230.1 18.9996 230.1 19.3996 230.1 19.6996C230.1 19.9996 230.1 20.3996 230.1 20.7996C230.9 18.8996 232.1 17.2996 233.9 16.0996C235.6 14.8996 237.6 14.1996 239.9 14.1996C240.5 14.1996 241 14.1996 241.5 14.2996V17.8996C240.8 17.7996 240.2 17.7996 239.7 17.7996C237.8 17.7996 236.1 18.1996 234.7 19.0996C233.3 19.9996 232.2 21.1996 231.4 22.7996C230.6 24.3996 230.2 26.2996 230.2 28.3996V43.8996H226.4V43.7996Z" fill="#072723"/>
<path d="M250.7 42.9996L250.5 43.7996H238.8L239 42.9996C242.2 42.6996 243.6 41.6996 244.1 39.2996L250.7 8.19958C251.4 4.99958 250.4 4.49958 247 5.19958L247.2 4.39957L254.4 1.99957H255.2L247.3 39.3996C246.7 41.6996 247.6 42.6996 250.7 42.9996Z" fill="#072723"/>
<path d="M264 42.9995L263.8 43.7996H252L252.2 42.9995C255.4 42.6996 256.8 41.6996 257.3 39.2996L261.3 20.2996C262 17.0996 261.1 16.5996 257.6 17.2996L257.8 16.4995L265 14.0995H265.8L260.5 39.2996C260 41.6996 260.9 42.6996 264 42.9995ZM266 3.59955C267.6 3.59955 268.6 4.79955 268.4 6.39955C268.2 7.99955 266.8 9.09955 265.3 9.09955C263.7 9.09955 262.6 7.89955 262.8 6.39955C262.9 4.79955 264.3 3.59955 266 3.59955Z" fill="#072723"/>
<path d="M284.2 52.1996L287.4 37.2996C285.4 41.6996 281.1 44.6996 276.7 44.6996C269.5 44.6996 266.1 37.8996 268.3 27.7996C269.8 20.3996 276.4 14.0995 284.2 14.0995C287.8 14.0995 290.8 15.6995 292 18.0995L294.7 14.0995H295.5L287.3 52.1996C286.7 54.7996 288.8 55.2996 290.9 55.6996L290.7 56.4996H277.2L277.4 55.6996C281.4 55.2996 283.7 54.7996 284.2 52.1996ZM278.7 42.5995C282.4 42.5995 286.1 39.3995 287.9 35.5995L290.3 24.1996C290.9 20.0996 289 15.7996 283.3 15.7996C277.9 15.7996 273.3 20.6996 271.8 27.7996C270 36.4996 272.6 42.5995 278.7 42.5995Z" fill="#072723"/>
<path d="M335.8 42.9995L335.6 43.7996H323.8L324 42.9995C327.2 42.6996 328.6 41.6996 329.1 39.2996L333.1 20.2996C333.8 17.0996 332.9 16.5996 329.4 17.2996L329.6 16.4995L336.8 14.0995H337.6L332.3 39.2996C331.8 41.6996 332.7 42.6996 335.8 42.9995ZM337.8 3.59955C339.4 3.59955 340.4 4.79955 340.2 6.39955C340 7.99955 338.6 9.09955 337.1 9.09955C335.5 9.09955 334.4 7.89955 334.6 6.39955C334.8 4.79955 336.2 3.59955 337.8 3.59955Z" fill="#072723"/>
<path d="M319.1 39.1996L321.8 26.4995L324.4 14.0995H323.6L316.4 16.4995L316.2 17.2996C319.6 16.5996 320.5 17.0996 319.9 20.2996L316.5 36.4995C312.7 39.9995 310.1 42.0995 306.8 42.0995C302.8 42.0995 300.7 39.3996 301.7 34.6996L306.1 14.0995H305.3L298.1 16.4995L297.9 17.2996C301.3 16.5996 302.3 17.0996 301.6 20.2996L298.5 35.0995C297.3 40.5995 300.1 44.5995 305.2 44.5995C308.6 44.5995 311.6 42.6996 316.3 37.6996L316.1 38.6996L315.1 43.5995H322.6L322.8 42.6996C319.5 42.5996 318.6 41.6996 319.1 39.1996Z" fill="#072723"/>
<path d="M367.2 12.9996L369.5 1.89957H368.7L361.5 4.29957L361.3 5.09956C364.7 4.39956 365.6 4.89956 365 8.09956L363 17.5996C361.7 15.4996 358.9 14.0996 355.7 14.0996C347.8 14.0996 341.3 20.3996 339.6 28.2996C337.6 37.8996 340.9 44.6996 348.1 44.6996C352.6 44.6996 356.9 41.5996 358.9 37.1996L358.4 39.6996L357.5 43.7996L365 43.6996L365.2 42.8996C362.1 42.5996 361.2 41.5996 361.7 39.1996L367.2 12.9996ZM359.2 35.4996C357.5 39.3996 353.7 42.5996 350 42.5996C343.9 42.5996 341.3 36.4996 343 28.2996C344.6 20.5996 349.3 15.7996 354.7 15.7996C360.5 15.7996 362.4 20.3996 361.6 24.4996L361.3 25.7996L359.2 35.4996Z" fill="#072723"/>
</svg>

<svg xmlns="http://www.w3.org/2000/svg" width="370" height="57" fill="none" viewBox="0 0 370 57"><path fill="#072723" d="M65.3 23.8c0 21.5-13.2 28.4-20.2 22.3-5.7-5-7.4-15.6-16-16.7C18.2 28.1 17.2 42.6 10 42.6c-8.4 0-10-12.1-10-18.4C0 17.8 1.8 9.1 8.9 9.1c8.3 0 8.8 12.5 19.2 11.8 10.3-.7 10.5-13.7 17.3-19.2 5.9-4.9 19.9.3 19.9 22.1M96.3 43.8V2.1h4v18.1h24.4V2.1h3.9v41.8h-3.9V23.6h-24.4v20.3h-4zM139 56.5l5.4-13.4L132.7 15h4.1l7.7 19c.4 1.2 1.1 2.7 1.9 4.6.1-.3.2-.6.4-.9.1-.3.2-.6.4-.9.2-.5.5-1 .6-1.5s.3-.9.5-1.4l7.2-19h3.9L143 56.4h-4zM163.2 56.5V15h3.7v5.3c1-1.8 2.3-3.3 4.2-4.4 1.8-1.1 3.8-1.7 6.1-1.7 2.7 0 5 .7 7 2s3.5 3.1 4.6 5.4 1.6 4.9 1.6 7.8c0 3-.5 5.6-1.6 7.9s-2.7 4.1-4.6 5.5c-2 1.3-4.3 2-6.8 2-2.2 0-4.1-.5-6-1.6-1.8-1-3.2-2.6-4.3-4.6v18h-3.9zm13.4-14.8c2 0 3.7-.5 5.2-1.6s2.6-2.5 3.5-4.4c.8-1.9 1.2-4 1.2-6.4q0-3.6-1.2-6.3c-.8-1.8-2-3.3-3.5-4.3s-3.2-1.5-5.2-1.5q-2.85 0-5.1 1.5c-1.5 1-2.7 2.4-3.5 4.3-.8 1.8-1.3 4-1.3 6.4s.4 4.6 1.3 6.4c.8 1.9 2 3.3 3.5 4.4s3.2 1.5 5.1 1.5M208.1 44.7q-4.05 0-7.2-1.8c-2.1-1.2-3.7-3-4.8-5.3s-1.7-5.1-1.7-8.3q0-4.35 1.8-7.8t4.8-5.4c2-1.3 4.3-2 6.8-2 2.7 0 5 .6 7 1.9 1.9 1.2 3.4 3 4.4 5.2 1 2.3 1.5 4.9 1.5 7.9v.8h-22.6c0 2.5.4 4.6 1.3 6.4s2 3.1 3.5 4 3.3 1.4 5.2 1.4c2.3 0 4.2-.5 5.8-1.6 1.5-1.1 2.5-2.8 2.8-5h3.7c-.3 1.8-.9 3.5-2 4.9-1 1.4-2.4 2.6-4.2 3.4-1.6.8-3.7 1.3-6.1 1.3m8.6-17.6q0-4.5-2.4-7.2c-1.6-1.8-3.7-2.7-6.5-2.7-2.7 0-4.9.9-6.6 2.8s-2.7 4.2-3 7.1zM226.4 43.8V15h3.7v5.8c.8-1.9 2-3.5 3.8-4.7 1.7-1.2 3.7-1.9 6-1.9.6 0 1.1 0 1.6.1v3.6c-.7-.1-1.3-.1-1.8-.1-1.9 0-3.6.4-5 1.3s-2.5 2.1-3.3 3.7-1.2 3.5-1.2 5.6v15.5h-3.8zM250.7 43l-.2.8h-11.7l.2-.8c3.2-.3 4.6-1.3 5.1-3.7l6.6-31.1c.7-3.2-.3-3.7-3.7-3l.2-.8 7.2-2.4h.8l-7.9 37.4c-.6 2.3.3 3.3 3.4 3.6M264 43l-.2.8H252l.2-.8c3.2-.3 4.6-1.3 5.1-3.7l4-19c.7-3.2-.2-3.7-3.7-3l.2-.8 7.2-2.4h.8l-5.3 25.2c-.5 2.4.4 3.4 3.5 3.7m2-39.4c1.6 0 2.6 1.2 2.4 2.8s-1.6 2.7-3.1 2.7c-1.6 0-2.7-1.2-2.5-2.7.1-1.6 1.5-2.8 3.2-2.8M284.2 52.2l3.2-14.9c-2 4.4-6.3 7.4-10.7 7.4-7.2 0-10.6-6.8-8.4-16.9 1.5-7.4 8.1-13.7 15.9-13.7 3.6 0 6.6 1.6 7.8 4l2.7-4h.8l-8.2 38.1c-.6 2.6 1.5 3.1 3.6 3.5l-.2.8h-13.5l.2-.8c4-.4 6.3-.9 6.8-3.5m-5.5-9.6c3.7 0 7.4-3.2 9.2-7l2.4-11.4c.6-4.1-1.3-8.4-7-8.4-5.4 0-10 4.9-11.5 12-1.8 8.7.8 14.8 6.9 14.8M335.8 43l-.2.8h-11.8l.2-.8c3.2-.3 4.6-1.3 5.1-3.7l4-19c.7-3.2-.2-3.7-3.7-3l.2-.8 7.2-2.4h.8l-5.3 25.2c-.5 2.4.4 3.4 3.5 3.7m2-39.4c1.6 0 2.6 1.2 2.4 2.8s-1.6 2.7-3.1 2.7c-1.6 0-2.7-1.2-2.5-2.7.2-1.6 1.6-2.8 3.2-2.8M319.1 39.2l2.7-12.7 2.6-12.4h-.8l-7.2 2.4-.2.8c3.4-.7 4.3-.2 3.7 3l-3.4 16.2c-3.8 3.5-6.4 5.6-9.7 5.6-4 0-6.1-2.7-5.1-7.4l4.4-20.6h-.8l-7.2 2.4-.2.8c3.4-.7 4.4-.2 3.7 3l-3.1 14.8c-1.2 5.5 1.6 9.5 6.7 9.5 3.4 0 6.4-1.9 11.1-6.9l-.2 1-1 4.9h7.5l.2-.9c-3.3-.1-4.2-1-3.7-3.5M367.2 13l2.3-11.1h-.8l-7.2 2.4-.2.8c3.4-.7 4.3-.2 3.7 3l-2 9.5c-1.3-2.1-4.1-3.5-7.3-3.5-7.9 0-14.4 6.3-16.1 14.2-2 9.6 1.3 16.4 8.5 16.4 4.5 0 8.8-3.1 10.8-7.5l-.5 2.5-.9 4.1 7.5-.1.2-.8c-3.1-.3-4-1.3-3.5-3.7zm-8 22.5c-1.7 3.9-5.5 7.1-9.2 7.1-6.1 0-8.7-6.1-7-14.3 1.6-7.7 6.3-12.5 11.7-12.5 5.8 0 7.7 4.6 6.9 8.7l-.3 1.3z"/></svg>
